X:1
T:Isaac Watts, 1709 (Hymn 100, Book 2) 88. 88. (L. M.)
T:D minor Oliver Holden, 1796
T:Louisiana No copyright. Transcribed from The Union Harmony, 1796.
%%score [ 1 2 3 4 ]
L:1/8
M:4/4
K:F
V:1 treble nm="Treble" snm="Tr."
V:2 treble nm="Counter" snm="C."
V:3 treble-8 nm="Tenor" snm="T."
V:4 bass nm="Bass" snm="B."
V:1
 d4 A2 A2 | B2 A2 A2 =B2 | A8 | d4 d2 A2 | A4 c4 | c4 A4 | A4 F4 | A2 A2 A2 ^c2 | d2 A2 A2 A2 | %9
 A2 c2 d2 A2 | A6 A2 | G6 F2 | A2 A2 A2 ^c2 | d2 ^c2 A2 A2 | A3 A A2 A2 | A4 A4 | A8 |] %17
V:2
 D4 D2 D2 | E2 D2 D2 E2 | E8 | F4 F2 E2 | D4 E4 | F4 E4 | D4 D4 | D2 E2 F2 E2 | D2 E2 F2 E2 | %9
w: 1.~How full of|an- guish is the|thought,|How it dis-|trncts and|tears my|heart, If|God at last, my|sove- reign Judge, Should|
 F2 F2 F2 F2 | F6 F2 | E6 F2 | F2 E2 F2 E2 | D2 E2 ^C2 C2 | D3 ^C D2 D2 | F4 E4 | D8 |] %17
w: frown and bid my|soul de-|part. If|God at last, my|sove- reign Judge, should|frown and bid my|soul de-|part.|
V:3
 A4 A2 A2 | G2 E2 F2 ^G2 | A8 | B4 A2 G2 | F4 G4 | (A2 GF) E4 | D4 A4 | d2 ^c2 d2 e2 | %8
 f2 e2 d2 ^c2 | d2 A2 A2 F2 | c6 d2 | c6 A2 | d2 ^c2 d2 e2 | f2 ed e2 e2 | f3 e de fe | d4 ^c4 | %16
 d8 |] %17
V:4
 D,4 D,2 D,2 | ^C,2 A,,2 D,2 E,2 | A,,8 | D,4 D,2 ^C,2 | D,4 E,4 | (F,3 G,) A,4 | D,4 D,4 | %7
 D,2 A,,2 D,2 A,2 | D2 ^C2 D2 A,2 | A,2 A,2 F,2 D,2 | F,6 F,2 | C,6 F,2 | D,2 A,,2 D,2 A,2 | %13
 F,2 G,2 A,2 A,2 | F,3 G, A,2 A,2 | A,4 A,,4 | D,8 |] %17

